assets/icons/award-lg.svg

<svg viewBox="0 0 220 220" fill="#FBC30B" xmlns="http://www.w3.org/2000/svg">
<g>
<path d="M156.317 131.076C170.105 114.693 183.533 122.952 183.533 122.952C174.707 141.657 156.317 131.076 156.317 131.076Z" fill="#FBC30B"/>
<path d="M118.074 147.133C117.598 147.133 117.143 146.85 116.945 146.388C116.679 145.764 116.969 145.043 117.591 144.779C153.693 129.407 174.731 109.848 180.129 86.6429C183.71 71.2405 179.493 57.0833 175.329 47.919C170.802 37.9595 165.379 31.6167 165.324 31.5548C164.883 31.0429 164.94 30.269 165.455 29.8262C165.969 29.3833 166.741 29.4405 167.186 29.9548C167.419 30.2214 172.89 36.6309 177.562 46.9048C181.886 56.4143 186.252 71.1238 182.514 87.1976C176.933 111.207 155.414 131.34 118.552 147.036C118.4 147.1 118.233 147.133 118.074 147.133Z" fill="#FBC30B"/>
<path d="M151.381 0C170 7.38095 163.321 28.1333 163.321 28.1333C142.186 13.6548 151.381 0 151.381 0Z" fill="#FBC30B"/>
<path d="M175.981 6.06189C192.795 27.0571 178.779 40.3857 178.779 40.3857C164.96 21.6047 175.981 6.06189 175.981 6.06189Z" fill="#FBC30B"/>
<path d="M147.926 31.75C163.619 30.0024 168.538 46.6119 168.538 46.6119C154.124 50.0048 147.926 31.75 147.926 31.75Z" fill="#FBC30B"/>
<path d="M193.993 36.9857C200.624 59.7429 186.498 62.4381 186.498 62.4381C177.583 42.25 193.993 36.9857 193.993 36.9857Z" fill="#FBC30B"/>
<path d="M156.49 52.4405C178.19 53.031 177.99 75.2453 177.99 75.2453C164.079 77.7691 156.49 52.4405 156.49 52.4405Z" fill="#FBC30B"/>
<path d="M167.717 77.8976C178.793 92.0119 167.712 107.786 167.712 107.786C153.205 99.4405 167.717 77.8976 167.717 77.8976Z" fill="#FBC30B"/>
<path d="M154.924 100.85C161.771 118.207 144.924 126.726 144.924 126.726C136.959 108.824 154.924 100.85 154.924 100.85Z" fill="#FBC30B"/>
<path d="M118.538 141.14C115.248 123.643 136.94 118.852 136.94 118.852C141.876 129.419 118.538 141.14 118.538 141.14Z" fill="#FBC30B"/>
<path d="M186.062 88.1333C203.54 86.0048 198.531 66.0929 198.531 66.0929C182.262 70.031 186.062 88.1333 186.062 88.1333Z" fill="#FBC30B"/>
<path d="M176.576 113.81C179.19 92.2619 197.586 94.3667 197.586 94.3667C198.314 108.426 176.576 113.81 176.576 113.81Z" fill="#FBC30B"/>
<path d="M164.09 144.362C145.224 155.081 137.081 140.74 137.081 140.74C148.09 132.005 164.09 144.362 164.09 144.362Z" fill="#FBC30B"/>
<path d="M148.793 155.295C137.402 167.052 119.179 150.9 119.179 150.9C124.093 141.269 148.793 155.295 148.793 155.295Z" fill="#FBC30B"/>
<path d="M112.779 151.657C112.779 151.657 125.602 156.15 125.036 166.667C125.036 166.667 111.624 161.633 112.779 151.657Z" fill="#FBC30B"/>
<path d="M16.4667 122.952C16.4667 122.952 29.8952 114.693 43.6833 131.076C43.6833 131.076 25.2929 141.657 16.4667 122.952Z" fill="#FBC30B"/>
<path d="M81.9262 147.133C82.4024 147.133 82.8572 146.85 83.0548 146.388C83.3214 145.764 83.031 145.043 82.4095 144.779C46.3048 129.407 25.2667 109.848 19.8714 86.6429C16.2905 71.2405 20.5072 57.0833 24.6714 47.919C29.1976 37.9595 34.6214 31.6167 34.6762 31.5548C35.1167 31.0429 35.0595 30.269 34.5453 29.8262C34.031 29.3833 33.2595 29.4405 32.8143 29.9548C32.581 30.2214 27.1095 36.6309 22.4381 46.9048C18.1143 56.4143 13.7476 71.1238 17.4857 87.1976C23.0667 111.207 44.5857 131.34 81.4476 147.036C81.6 147.1 81.7667 147.133 81.9262 147.133Z" fill="#FBC30B"/>
<path d="M36.6786 28.1333C36.6786 28.1333 29.9976 7.37857 48.6191 0C48.6191 0 57.8143 13.6548 36.6786 28.1333Z" fill="#FBC30B"/>
<path d="M21.2214 40.3857C21.2214 40.3857 7.20474 27.0571 24.019 6.06189C24.019 6.06189 35.0405 21.6047 21.2214 40.3857Z" fill="#FBC30B"/>
<path d="M31.4619 46.6119C31.4619 46.6119 36.381 30 52.0738 31.75C52.0738 31.75 45.8762 50.0048 31.4619 46.6119Z" fill="#FBC30B"/>
<path d="M13.5048 62.4405C13.5048 62.4405 -0.623801 59.7429 6.00953 36.9881C6.00953 36.9881 22.4167 42.25 13.5048 62.4405Z" fill="#FBC30B"/>
<path d="M22.0095 75.2476C22.0095 75.2476 21.8095 53.0333 43.5095 52.4429C43.5095 52.4429 35.9214 77.7691 22.0095 75.2476Z" fill="#FBC30B"/>
<path d="M32.2881 107.786C32.2881 107.786 21.2071 92.0119 32.2833 77.8976C32.2833 77.8976 46.7952 99.4405 32.2881 107.786Z" fill="#FBC30B"/>
<path d="M55.0762 126.729C55.0762 126.729 38.2286 118.21 45.0762 100.852C45.0762 100.852 63.0405 108.824 55.0762 126.729Z" fill="#FBC30B"/>
<path d="M63.0595 118.852C63.0595 118.852 84.75 123.645 81.4619 141.14C81.4619 141.14 58.1238 129.419 63.0595 118.852Z" fill="#FBC30B"/>
<path d="M1.46907 66.0929C1.46907 66.0929 -3.54045 86.0048 13.9381 88.1333C13.9381 88.1333 17.7381 70.031 1.46907 66.0929Z" fill="#FBC30B"/>
<path d="M2.41428 94.3667C2.41428 94.3667 20.8119 92.2619 23.4238 113.81C23.4238 113.81 1.6857 108.426 2.41428 94.3667Z" fill="#FBC30B"/>
<path d="M62.9191 140.74C62.9191 140.74 54.7762 155.079 35.9095 144.362C35.9095 144.362 51.9095 132.005 62.9191 140.74Z" fill="#FBC30B"/>
<path d="M80.8191 150.9C80.8191 150.9 62.5976 167.052 51.2048 155.295C51.2048 155.295 75.9072 141.269 80.8191 150.9Z" fill="#FBC30B"/>
<path d="M74.9619 166.667C74.3977 156.15 87.2191 151.657 87.2191 151.657C88.3762 161.633 74.9619 166.667 74.9619 166.667Z" fill="#FBC30B"/>
</g>
</svg>

<svg xmlns="http://www.w3.org/2000/svg" class="fill-current" viewBox="0 0 220 220"><path d="M156.317 131.076c13.788-16.383 27.216-8.124 27.216-8.124-8.826 18.705-27.216 8.124-27.216 8.124"/><path d="M118.074 147.133a1.225 1.225 0 0 1-.483-2.354c36.102-15.372 57.14-34.931 62.538-58.136 3.581-15.403-.636-29.56-4.8-38.724-4.527-9.96-9.95-16.302-10.005-16.364a1.225 1.225 0 0 1 .131-1.729 1.226 1.226 0 0 1 1.731.129c.233.266 5.704 6.676 10.376 16.95 4.324 9.51 8.69 24.219 4.952 40.293-5.581 24.009-27.1 44.142-63.962 59.838a1.3 1.3 0 0 1-.478.097M151.381 0c18.619 7.381 11.94 28.133 11.94 28.133C142.186 13.655 151.381 0 151.381 0m24.6 6.062c16.814 20.995 2.798 34.324 2.798 34.324-13.819-18.781-2.798-34.324-2.798-34.324"/><path d="M147.926 31.75c15.693-1.748 20.612 14.862 20.612 14.862-14.414 3.393-20.612-14.862-20.612-14.862m46.067 5.236c6.631 22.757-7.495 25.452-7.495 25.452-8.915-20.188 7.495-25.452 7.495-25.452M156.49 52.44c21.7.591 21.5 22.805 21.5 22.805-13.911 2.524-21.5-22.805-21.5-22.805m11.227 25.458c11.076 14.114-.005 29.888-.005 29.888-14.507-8.346.005-29.888.005-29.888m-12.793 22.952c6.847 17.357-10 25.876-10 25.876-7.965-17.902 10-25.876 10-25.876m-36.386 40.29c-3.29-17.497 18.402-22.288 18.402-22.288 4.936 10.567-18.402 22.288-18.402 22.288m67.524-53.007c17.478-2.128 12.469-22.04 12.469-22.04-16.269 3.938-12.469 22.04-12.469 22.04m-9.486 25.677c2.614-21.548 21.01-19.443 21.01-19.443.728 14.059-21.01 19.443-21.01 19.443m-12.486 30.552c-18.866 10.719-27.009-3.622-27.009-3.622 11.009-8.735 27.009 3.622 27.009 3.622m-15.297 10.933c-11.391 11.757-29.614-4.395-29.614-4.395 4.914-9.631 29.614 4.395 29.614 4.395m-36.014-3.638s12.823 4.493 12.257 15.01c0 0-13.412-5.034-12.257-15.01m-96.312-28.705s13.428-8.259 27.216 8.124c0 0-18.39 10.581-27.216-8.124"/><path d="M81.926 147.133a1.225 1.225 0 0 0 .483-2.354c-36.104-15.372-57.142-34.931-62.538-58.136-3.58-15.403.636-29.56 4.8-38.724 4.527-9.96 9.95-16.302 10.005-16.364a1.226 1.226 0 0 0-.13-1.729 1.226 1.226 0 0 0-1.732.129c-.233.266-5.704 6.676-10.376 16.95-4.324 9.51-8.69 24.219-4.952 40.293 5.58 24.009 27.1 44.142 63.962 59.838.152.064.319.097.478.097m-45.247-119S29.998 7.38 48.619 0c0 0 9.195 13.655-11.94 28.133M21.221 40.386S7.205 27.057 24.02 6.062c0 0 11.022 15.543-2.798 34.324"/><path d="M31.462 46.612S36.38 30 52.074 31.75c0 0-6.198 18.255-20.612 14.862M13.505 62.44S-.624 59.744 6.01 36.989c0 0 16.407 5.262 7.495 25.453m8.505 12.806s-.2-22.215 21.5-22.805c0 0-7.589 25.326-21.5 22.805m10.278 32.538s-11.08-15.774-.005-29.888c0 0 14.512 21.543.005 29.888m22.788 18.943s-16.847-8.519-10-25.877c0 0 17.965 7.972 10 25.877m7.984-7.877s21.69 4.793 18.402 22.288c0 0-23.338-11.721-18.403-22.288M1.47 66.093s-5.01 19.912 12.468 22.04c0 0 3.8-18.102-12.469-22.04m.945 28.274s18.398-2.105 21.01 19.443c0 0-21.738-5.384-21.01-19.443M62.92 140.74s-8.144 14.339-27.01 3.622c0 0 16-12.357 27.01-3.622m17.9 10.16s-18.222 16.152-29.615 4.395c0 0 24.702-14.026 29.614-4.395m-5.857 15.767c-.564-10.517 12.257-15.01 12.257-15.01 1.157 9.976-12.257 15.01-12.257 15.01"/></svg>
